images/16758508.svg

<?xml version="1.0" encoding="UTF-8"?>
<svg xmlns="http://www.w3.org/2000/svg" xmlns:xlink="http://www.w3.org/1999/xlink" width="300pt" height="300pt" viewBox="0 0 300 300" version="1.1">
<defs>
<g>
<symbol overflow="visible" id="glyph0-0">
<path style="stroke:none;" d="M 0.453125 1.59375 L 0.453125 -6.34375 L 4.953125 -6.34375 L 4.953125 1.59375 Z M 0.953125 1.09375 L 4.453125 1.09375 L 4.453125 -5.84375 L 0.953125 -5.84375 Z M 0.953125 1.09375 "/>
</symbol>
<symbol overflow="visible" id="glyph0-1">
<path style="stroke:none;" d="M 0.890625 -6.5625 L 2.078125 -6.5625 L 4.984375 -1.078125 L 4.984375 -6.5625 L 5.84375 -6.5625 L 5.84375 0 L 4.65625 0 L 1.75 -5.484375 L 1.75 0 L 0.890625 0 Z M 0.890625 -6.5625 "/>
</symbol>
<symbol overflow="visible" id="glyph0-2">
<path style="stroke:none;" d="M 3.546875 -5.953125 C 2.898438 -5.953125 2.382812 -5.710938 2 -5.234375 C 1.625 -4.753906 1.4375 -4.101562 1.4375 -3.28125 C 1.4375 -2.445312 1.625 -1.789062 2 -1.3125 C 2.382812 -0.832031 2.898438 -0.59375 3.546875 -0.59375 C 4.191406 -0.59375 4.703125 -0.832031 5.078125 -1.3125 C 5.453125 -1.789062 5.640625 -2.445312 5.640625 -3.28125 C 5.640625 -4.101562 5.453125 -4.753906 5.078125 -5.234375 C 4.703125 -5.710938 4.191406 -5.953125 3.546875 -5.953125 Z M 3.546875 -6.6875 C 4.460938 -6.6875 5.195312 -6.375 5.75 -5.75 C 6.300781 -5.132812 6.578125 -4.3125 6.578125 -3.28125 C 6.578125 -2.238281 6.300781 -1.410156 5.75 -0.796875 C 5.195312 -0.179688 4.460938 0.125 3.546875 0.125 C 2.617188 0.125 1.878906 -0.179688 1.328125 -0.796875 C 0.773438 -1.410156 0.5 -2.238281 0.5 -3.28125 C 0.5 -4.3125 0.773438 -5.132812 1.328125 -5.75 C 1.878906 -6.375 2.617188 -6.6875 3.546875 -6.6875 Z M 3.546875 -6.6875 "/>
</symbol>
</g>
</defs>
<g id="surface43429">
<rect x="0" y="0" width="300" height="300" style="fill:rgb(100%,100%,100%);fill-opacity:1;stroke:none;"/>
<path style="fill:none;stroke-width:1.2;stroke-linecap:butt;stroke-linejoin:miter;stroke:rgb(0%,0%,0%);stroke-opacity:1;stroke-miterlimit:10;" d="M 261.613281 149.574219 L 245.546875 160.660156 "/>
<path style="fill:none;stroke-width:1.2;stroke-linecap:butt;stroke-linejoin:miter;stroke:rgb(0%,0%,0%);stroke-opacity:1;stroke-miterlimit:10;" d="M 245.546875 160.660156 L 227.910156 152.289062 "/>
<path style="fill:none;stroke-width:1.2;stroke-linecap:butt;stroke-linejoin:miter;stroke:rgb(0%,0%,0%);stroke-opacity:1;stroke-miterlimit:10;" d="M 241.8125 163.972656 L 227.703125 157.277344 "/>
<path style="fill:none;stroke-width:1.2;stroke-linecap:butt;stroke-linejoin:miter;stroke:rgb(0%,0%,0%);stroke-opacity:1;stroke-miterlimit:10;" d="M 247.113281 180.121094 L 245.546875 160.660156 "/>
<path style="fill:none;stroke-width:1.2;stroke-linecap:butt;stroke-linejoin:miter;stroke:rgb(0%,0%,0%);stroke-opacity:1;stroke-miterlimit:10;" d="M 227.910156 152.289062 L 211.839844 163.378906 "/>
<path style="fill:none;stroke-width:1.2;stroke-linecap:butt;stroke-linejoin:miter;stroke:rgb(0%,0%,0%);stroke-opacity:1;stroke-miterlimit:10;" d="M 211.839844 163.378906 L 213.40625 182.835938 "/>
<path style="fill:none;stroke-width:1.2;stroke-linecap:butt;stroke-linejoin:miter;stroke:rgb(0%,0%,0%);stroke-opacity:1;stroke-miterlimit:10;" d="M 207.417969 165.691406 L 208.671875 181.261719 "/>
<path style="fill:none;stroke-width:1.2;stroke-linecap:butt;stroke-linejoin:miter;stroke:rgb(0%,0%,100%);stroke-opacity:1;stroke-miterlimit:10;" d="M 195.648438 152.46875 L 203.742188 157.921875 "/>
<path style="fill:none;stroke-width:1.2;stroke-linecap:butt;stroke-linejoin:miter;stroke:rgb(0%,0%,0%);stroke-opacity:1;stroke-miterlimit:10;" d="M 203.742188 157.921875 L 211.839844 163.378906 "/>
<path style="fill:none;stroke-width:1.2;stroke-linecap:butt;stroke-linejoin:miter;stroke:rgb(0%,0%,0%);stroke-opacity:1;stroke-miterlimit:10;" d="M 213.40625 182.835938 L 199.171875 196.195312 "/>
<path style="fill:none;stroke-width:1.2;stroke-linecap:butt;stroke-linejoin:miter;stroke:rgb(0%,0%,0%);stroke-opacity:1;stroke-miterlimit:10;" d="M 213.40625 182.835938 L 222.226562 187.023438 "/>
<path style="fill:none;stroke-width:1.2;stroke-linecap:butt;stroke-linejoin:miter;stroke:rgb(0%,0%,100%);stroke-opacity:1;stroke-miterlimit:10;" d="M 222.226562 187.023438 L 231.042969 191.210938 "/>
<path style="fill:none;stroke-width:1.2;stroke-linecap:butt;stroke-linejoin:miter;stroke:rgb(0%,0%,0%);stroke-opacity:1;stroke-miterlimit:10;" d="M 199.171875 196.195312 L 179.851562 193.394531 "/>
<path style="fill:none;stroke-width:1.2;stroke-linecap:butt;stroke-linejoin:miter;stroke:rgb(0%,0%,0%);stroke-opacity:1;stroke-miterlimit:10;" d="M 179.851562 193.394531 L 169.992188 176.542969 "/>
<path style="fill:none;stroke-width:1.2;stroke-linecap:butt;stroke-linejoin:miter;stroke:rgb(0%,0%,0%);stroke-opacity:1;stroke-miterlimit:10;" d="M 169.992188 176.542969 L 177.023438 158.328125 "/>
<path style="fill:none;stroke-width:1.2;stroke-linecap:butt;stroke-linejoin:miter;stroke:rgb(0%,0%,0%);stroke-opacity:1;stroke-miterlimit:10;" d="M 177.023438 158.328125 L 186.335938 155.398438 "/>
<path style="fill:none;stroke-width:1.2;stroke-linecap:butt;stroke-linejoin:miter;stroke:rgb(0%,0%,100%);stroke-opacity:1;stroke-miterlimit:10;" d="M 186.335938 155.398438 L 195.648438 152.46875 "/>
<path style="fill:none;stroke-width:1.2;stroke-linecap:butt;stroke-linejoin:miter;stroke:rgb(0%,0%,100%);stroke-opacity:1;stroke-miterlimit:10;" d="M 195.648438 152.46875 L 197.046875 142.808594 "/>
<path style="fill:none;stroke-width:1.2;stroke-linecap:butt;stroke-linejoin:miter;stroke:rgb(0%,0%,0%);stroke-opacity:1;stroke-miterlimit:10;" d="M 197.046875 142.808594 L 198.449219 133.148438 "/>
<path style=" stroke:none;fill-rule:nonzero;fill:rgb(100%,100%,100%);fill-opacity:1;" d="M 192.648438 146.96875 L 199.648438 146.96875 L 199.648438 157.96875 L 192.648438 157.96875 Z M 192.648438 146.96875 "/>
<g style="fill:rgb(0%,0%,100%);fill-opacity:1;">
  <use xlink:href="#glyph0-1" x="192.648438" y="155.631836"/>
</g>
<path style=" stroke:none;fill-rule:nonzero;fill:rgb(0%,0%,0%);fill-opacity:1;" d="M 183.117188 121.0625 L 196.316406 135.855469 L 200.582031 130.445312 Z M 183.117188 121.0625 "/>
<path style="fill:none;stroke-width:1.2;stroke-linecap:butt;stroke-linejoin:miter;stroke:rgb(0%,0%,0%);stroke-opacity:1;stroke-miterlimit:10;" d="M 183.117188 121.0625 L 185.917969 101.742188 "/>
<path style="fill:none;stroke-width:1.2;stroke-linecap:butt;stroke-linejoin:miter;stroke:rgb(0%,0%,0%);stroke-opacity:1;stroke-miterlimit:10;" d="M 183.117188 121.0625 L 174.050781 124.679688 "/>
<path style="fill:none;stroke-width:1.2;stroke-linecap:butt;stroke-linejoin:miter;stroke:rgb(100%,0%,0%);stroke-opacity:1;stroke-miterlimit:10;" d="M 174.050781 124.679688 L 164.984375 128.296875 "/>
<path style="fill:none;stroke-width:1.2;stroke-linecap:butt;stroke-linejoin:miter;stroke:rgb(100%,0%,0%);stroke-opacity:1;stroke-miterlimit:10;" d="M 164.984375 128.296875 L 157.316406 122.253906 "/>
<path style="fill:none;stroke-width:1.2;stroke-linecap:butt;stroke-linejoin:miter;stroke:rgb(0%,0%,100%);stroke-opacity:1;stroke-miterlimit:10;" d="M 157.316406 122.253906 L 149.652344 116.210938 "/>
<path style=" stroke:none;fill-rule:nonzero;fill:rgb(100%,100%,100%);fill-opacity:1;" d="M 160.984375 122.796875 L 168.984375 122.796875 L 168.984375 133.796875 L 160.984375 133.796875 Z M 160.984375 122.796875 "/>
<g style="fill:rgb(100%,0%,0%);fill-opacity:1;">
  <use xlink:href="#glyph0-2" x="160.984375" y="131.459961"/>
</g>
<path style="fill:none;stroke-width:1.2;stroke-linecap:butt;stroke-linejoin:miter;stroke:rgb(0%,0%,100%);stroke-opacity:1;stroke-miterlimit:10;" d="M 149.652344 116.210938 L 140.585938 119.828125 "/>
<path style="fill:none;stroke-width:1.2;stroke-linecap:butt;stroke-linejoin:miter;stroke:rgb(0%,0%,0%);stroke-opacity:1;stroke-miterlimit:10;" d="M 140.585938 119.828125 L 131.519531 123.445312 "/>
<path style="fill:none;stroke-width:1.2;stroke-linecap:butt;stroke-linejoin:miter;stroke:rgb(0%,0%,100%);stroke-opacity:1;stroke-miterlimit:10;" d="M 146.136719 112.667969 L 138.882812 115.5625 "/>
<path style="fill:none;stroke-width:1.2;stroke-linecap:butt;stroke-linejoin:miter;stroke:rgb(0%,0%,0%);stroke-opacity:1;stroke-miterlimit:10;" d="M 138.882812 115.5625 L 131.628906 118.453125 "/>
<path style=" stroke:none;fill-rule:nonzero;fill:rgb(100%,100%,100%);fill-opacity:1;" d="M 146.652344 110.710938 L 153.652344 110.710938 L 153.652344 121.710938 L 146.652344 121.710938 Z M 146.652344 110.710938 "/>
<g style="fill:rgb(0%,0%,100%);fill-opacity:1;">
  <use xlink:href="#glyph0-1" x="146.652344" y="119.374023"/>
</g>
<path style=" stroke:none;fill-rule:nonzero;fill:rgb(0%,0%,0%);fill-opacity:1;" d="M 128.71875 142.765625 L 134.929688 123.9375 L 128.109375 122.949219 Z M 128.71875 142.765625 "/>
<path style="fill:none;stroke-width:1.2;stroke-linecap:butt;stroke-linejoin:miter;stroke:rgb(0%,0%,0%);stroke-opacity:1;stroke-miterlimit:10;" d="M 128.71875 142.765625 L 110.585938 150 "/>
<path style="fill:none;stroke-width:1.2;stroke-linecap:butt;stroke-linejoin:miter;stroke:rgb(0%,0%,0%);stroke-opacity:1;stroke-miterlimit:10;" d="M 128.71875 142.765625 L 136.382812 148.808594 "/>
<path style="fill:none;stroke-width:1.2;stroke-linecap:butt;stroke-linejoin:miter;stroke:rgb(100%,0%,0%);stroke-opacity:1;stroke-miterlimit:10;" d="M 136.382812 148.808594 L 144.050781 154.851562 "/>
<path style="fill:none;stroke-width:1;stroke-linecap:butt;stroke-linejoin:miter;stroke:rgb(0%,0%,0%);stroke-opacity:1;stroke-miterlimit:10;" d="M 110.585938 150 L 110.585938 150 M 109.644531 152.847656 L 110.675781 153 M 108.703125 155.699219 L 110.769531 155.996094 M 107.765625 158.546875 L 110.859375 158.996094 M 106.824219 161.394531 L 110.953125 161.996094 M 105.886719 164.246094 L 111.042969 164.992188 M 104.945312 167.09375 L 111.136719 167.992188 M 104.375 168.828125 L 111.191406 169.816406 "/>
<path style="fill:none;stroke-width:1.2;stroke-linecap:butt;stroke-linejoin:miter;stroke:rgb(0%,0%,0%);stroke-opacity:1;stroke-miterlimit:10;" d="M 110.585938 150 L 95.253906 137.914062 "/>
<path style="fill:none;stroke-width:1.2;stroke-linecap:butt;stroke-linejoin:miter;stroke:rgb(0%,0%,0%);stroke-opacity:1;stroke-miterlimit:10;" d="M 95.253906 137.914062 L 77.121094 145.148438 "/>
<path style="fill:none;stroke-width:1.2;stroke-linecap:butt;stroke-linejoin:miter;stroke:rgb(0%,0%,0%);stroke-opacity:1;stroke-miterlimit:10;" d="M 91.738281 134.371094 L 77.230469 140.15625 "/>
<path style="fill:none;stroke-width:1.2;stroke-linecap:butt;stroke-linejoin:miter;stroke:rgb(0%,0%,0%);stroke-opacity:1;stroke-miterlimit:10;" d="M 77.121094 145.148438 L 74.316406 164.46875 "/>
<path style="fill:none;stroke-width:1.2;stroke-linecap:butt;stroke-linejoin:miter;stroke:rgb(0%,0%,0%);stroke-opacity:1;stroke-miterlimit:10;" d="M 74.316406 164.46875 L 56.183594 171.703125 "/>
<path style="fill:none;stroke-width:1.2;stroke-linecap:butt;stroke-linejoin:miter;stroke:rgb(0%,0%,0%);stroke-opacity:1;stroke-miterlimit:10;" d="M 57.605469 169.898438 L 49.941406 163.855469 "/>
<path style="fill:none;stroke-width:1.2;stroke-linecap:butt;stroke-linejoin:miter;stroke:rgb(100%,0%,0%);stroke-opacity:1;stroke-miterlimit:10;" d="M 49.941406 163.855469 L 42.273438 157.8125 "/>
<path style="fill:none;stroke-width:1.2;stroke-linecap:butt;stroke-linejoin:miter;stroke:rgb(0%,0%,0%);stroke-opacity:1;stroke-miterlimit:10;" d="M 54.761719 173.507812 L 47.097656 167.464844 "/>
<path style="fill:none;stroke-width:1.2;stroke-linecap:butt;stroke-linejoin:miter;stroke:rgb(100%,0%,0%);stroke-opacity:1;stroke-miterlimit:10;" d="M 47.097656 167.464844 L 39.429688 161.421875 "/>
<path style="fill:none;stroke-width:1.2;stroke-linecap:butt;stroke-linejoin:miter;stroke:rgb(0%,0%,0%);stroke-opacity:1;stroke-miterlimit:10;" d="M 56.183594 171.703125 L 54.785156 181.363281 "/>
<path style="fill:none;stroke-width:1.2;stroke-linecap:butt;stroke-linejoin:miter;stroke:rgb(100%,0%,0%);stroke-opacity:1;stroke-miterlimit:10;" d="M 54.785156 181.363281 L 53.382812 191.023438 "/>
<path style=" stroke:none;fill-rule:nonzero;fill:rgb(100%,100%,100%);fill-opacity:1;" d="M 32.851562 154.117188 L 40.851562 154.117188 L 40.851562 165.117188 L 32.851562 165.117188 Z M 32.851562 154.117188 "/>
<g style="fill:rgb(100%,0%,0%);fill-opacity:1;">
  <use xlink:href="#glyph0-2" x="32.851562" y="162.780273"/>
</g>
<path style="fill:none;stroke-width:1.2;stroke-linecap:butt;stroke-linejoin:miter;stroke:rgb(100%,0%,0%);stroke-opacity:1;stroke-miterlimit:10;" d="M 53.382812 191.023438 L 44.316406 194.640625 "/>
<path style="fill:none;stroke-width:1.2;stroke-linecap:butt;stroke-linejoin:miter;stroke:rgb(0%,0%,0%);stroke-opacity:1;stroke-miterlimit:10;" d="M 44.316406 194.640625 L 35.25 198.257812 "/>
<path style=" stroke:none;fill-rule:nonzero;fill:rgb(100%,100%,100%);fill-opacity:1;" d="M 49.382812 185.523438 L 57.382812 185.523438 L 57.382812 196.523438 L 49.382812 196.523438 Z M 49.382812 185.523438 "/>
<g style="fill:rgb(100%,0%,0%);fill-opacity:1;">
  <use xlink:href="#glyph0-2" x="49.382812" y="194.186523"/>
</g>
<path style="fill:none;stroke-width:1.2;stroke-linecap:butt;stroke-linejoin:miter;stroke:rgb(100%,0%,0%);stroke-opacity:1;stroke-miterlimit:10;" d="M 144.050781 154.851562 L 142.648438 164.511719 "/>
<path style="fill:none;stroke-width:1.2;stroke-linecap:butt;stroke-linejoin:miter;stroke:rgb(0%,0%,0%);stroke-opacity:1;stroke-miterlimit:10;" d="M 142.648438 164.511719 L 141.246094 174.171875 "/>
<path style=" stroke:none;fill-rule:nonzero;fill:rgb(100%,100%,100%);fill-opacity:1;" d="M 140.050781 149.351562 L 148.050781 149.351562 L 148.050781 160.351562 L 140.050781 160.351562 Z M 140.050781 149.351562 "/>
<g style="fill:rgb(100%,0%,0%);fill-opacity:1;">
  <use xlink:href="#glyph0-2" x="140.050781" y="158.014648"/>
</g>
<path style="fill:none;stroke-width:1.2;stroke-linecap:butt;stroke-linejoin:miter;stroke:rgb(0%,0%,100%);stroke-opacity:1;stroke-miterlimit:10;" d="M 231.042969 191.210938 L 239.078125 185.664062 "/>
<path style="fill:none;stroke-width:1.2;stroke-linecap:butt;stroke-linejoin:miter;stroke:rgb(0%,0%,0%);stroke-opacity:1;stroke-miterlimit:10;" d="M 239.078125 185.664062 L 247.113281 180.121094 "/>
<path style="fill:none;stroke-width:1.2;stroke-linecap:butt;stroke-linejoin:miter;stroke:rgb(0%,0%,100%);stroke-opacity:1;stroke-miterlimit:10;" d="M 230.042969 186.320312 L 236.46875 181.882812 "/>
<path style="fill:none;stroke-width:1.2;stroke-linecap:butt;stroke-linejoin:miter;stroke:rgb(0%,0%,0%);stroke-opacity:1;stroke-miterlimit:10;" d="M 236.46875 181.882812 L 242.898438 177.449219 "/>
<path style=" stroke:none;fill-rule:nonzero;fill:rgb(100%,100%,100%);fill-opacity:1;" d="M 228.042969 185.710938 L 235.042969 185.710938 L 235.042969 196.710938 L 228.042969 196.710938 Z M 228.042969 185.710938 "/>
<g style="fill:rgb(0%,0%,100%);fill-opacity:1;">
  <use xlink:href="#glyph0-1" x="228.042969" y="194.374023"/>
</g>
<path style="fill:none;stroke-width:1.2;stroke-linecap:butt;stroke-linejoin:miter;stroke:rgb(0%,0%,0%);stroke-opacity:1;stroke-miterlimit:10;" d="M 247.113281 180.121094 L 264.75 188.492188 "/>
</g>
</svg>

<svg xmlns="http://www.w3.org/2000/svg" xmlns:xlink="http://www.w3.org/1999/xlink" width="300pt" height="300pt" viewBox="0 0 300 300"><defs><symbol overflow="visible"><path d="M.453 1.594v-7.938h4.5v7.938zm.5-.5h3.5v-6.938h-3.5zm0 0"/></symbol><symbol overflow="visible" id="a"><path d="M.89-6.563H2.08l2.906 5.485v-5.484h.86V0H4.656L1.75-5.484V0H.89zm0 0"/></symbol><symbol overflow="visible" id="b"><path d="M3.547-5.953c-.65 0-1.164.242-1.547.72-.375.48-.563 1.13-.563 1.952 0 .835.188 1.49.563 1.967.383.48.898.72 1.547.72.644 0 1.156-.24 1.53-.72.376-.476.564-1.132.564-1.968 0-.822-.187-1.474-.562-1.954-.375-.477-.887-.72-1.53-.72zm0-.734c.914 0 1.648.312 2.203.937.55.617.828 1.438.828 2.47 0 1.042-.277 1.87-.828 2.483-.555.617-1.29.922-2.203.922-.93 0-1.668-.305-2.22-.922C.774-1.41.5-2.237.5-3.28c0-1.033.273-1.853.828-2.47.55-.625 1.29-.938 2.22-.938zm0 0"/></symbol></defs><g><path fill="#fff" d="M0 0h300v300H0z"/><path d="M261.613 149.574l-16.066 11.086M245.547 160.66l-17.637-8.37M241.813 163.973l-14.11-6.696M247.113 180.12l-1.566-19.46M227.91 152.29l-16.07 11.09M211.84 163.38l1.566 19.456M207.418 165.69l1.254 15.572" stroke-width="1.2" stroke="#000" stroke-miterlimit="10" fill="none"/><path d="M195.648 152.47l8.094 5.452" stroke-width="1.2" stroke="#00f" stroke-miterlimit="10" fill="none"/><path d="M203.742 157.922l8.098 5.457M213.406 182.836l-14.234 13.36M213.406 182.836l8.82 4.187" stroke-width="1.2" stroke="#000" stroke-miterlimit="10" fill="none"/><path d="M222.227 187.023l8.816 4.188" stroke-width="1.2" stroke="#00f" stroke-miterlimit="10" fill="none"/><path d="M199.172 196.195l-19.32-2.8M179.852 193.395l-9.86-16.852M169.992 176.543l7.03-18.215M177.023 158.328l9.313-2.93" stroke-width="1.2" stroke="#000" stroke-miterlimit="10" fill="none"/><path d="M186.336 155.398l9.312-2.93M195.648 152.47l1.4-9.66" stroke-width="1.2" stroke="#00f" stroke-miterlimit="10" fill="none"/><path d="M197.047 142.81l1.402-9.662" stroke-width="1.2" stroke="#000" stroke-miterlimit="10" fill="none"/><path d="M192.648 146.97h7v11h-7zm0 0" fill="#fff"/><use xlink:href="#a" x="192.648" y="155.632" fill="#00f"/><path d="M183.117 121.063l13.2 14.792 4.265-5.41zm0 0"/><path d="M183.117 121.063l2.8-19.32M183.117 121.063l-9.066 3.617" stroke-width="1.2" stroke="#000" stroke-miterlimit="10" fill="none"/><path d="M174.05 124.68l-9.066 3.617M164.984 128.297l-7.668-6.043" stroke-width="1.2" stroke="#f00" stroke-miterlimit="10" fill="none"/><path d="M157.316 122.254l-7.664-6.043" stroke-width="1.2" stroke="#00f" stroke-miterlimit="10" fill="none"/><path d="M160.984 122.797h8v11h-8zm0 0" fill="#fff"/><use xlink:href="#b" x="160.984" y="131.46" fill="#f00"/><path d="M149.652 116.21l-9.066 3.618" stroke-width="1.2" stroke="#00f" stroke-miterlimit="10" fill="none"/><path d="M140.586 119.828l-9.066 3.617" stroke-width="1.2" stroke="#000" stroke-miterlimit="10" fill="none"/><path d="M146.137 112.668l-7.254 2.894" stroke-width="1.2" stroke="#00f" stroke-miterlimit="10" fill="none"/><path d="M138.883 115.563l-7.254 2.89" stroke-width="1.2" stroke="#000" stroke-miterlimit="10" fill="none"/><path d="M146.652 110.71h7v11h-7zm0 0" fill="#fff"/><use xlink:href="#a" x="146.652" y="119.374" fill="#00f"/><path d="M128.72 142.766l6.21-18.828-6.82-.99zm0 0"/><path d="M128.72 142.766L110.585 150M128.72 142.766l7.663 6.043" stroke-width="1.2" stroke="#000" stroke-miterlimit="10" fill="none"/><path d="M136.383 148.81l7.668 6.042" stroke-width="1.2" stroke="#f00" stroke-miterlimit="10" fill="none"/><path d="M110.586 150m-.94 2.848l1.03.152m-1.973 2.7l2.067.296m-3.004 2.55l3.093.45m-4.036 2.4l4.13.6m-5.067 2.25l5.156.746m-6.098 2.102l6.192.898m-6.762.836l6.816.988" stroke="#000" stroke-miterlimit="10" fill="none"/><path d="M110.586 150l-15.332-12.086M95.254 137.914l-18.133 7.234M91.738 134.37l-14.508 5.786M77.12 145.148l-2.804 19.32M74.316 164.47l-18.132 7.233M57.605 169.898l-7.664-6.043" stroke-width="1.2" stroke="#000" stroke-miterlimit="10" fill="none"/><path d="M49.94 163.855l-7.667-6.042" stroke-width="1.2" stroke="#f00" stroke-miterlimit="10" fill="none"/><path d="M54.762 173.508l-7.664-6.043" stroke-width="1.2" stroke="#000" stroke-miterlimit="10" fill="none"/><path d="M47.098 167.465l-7.668-6.043" stroke-width="1.2" stroke="#f00" stroke-miterlimit="10" fill="none"/><path d="M56.184 171.703l-1.4 9.66" stroke-width="1.2" stroke="#000" stroke-miterlimit="10" fill="none"/><path d="M54.785 181.363l-1.402 9.66" stroke-width="1.2" stroke="#f00" stroke-miterlimit="10" fill="none"/><path d="M32.852 154.117h8v11h-8zm0 0" fill="#fff"/><use xlink:href="#b" x="32.852" y="162.78" fill="#f00"/><path d="M53.383 191.023l-9.067 3.618" stroke-width="1.2" stroke="#f00" stroke-miterlimit="10" fill="none"/><path d="M44.316 194.64l-9.066 3.618" stroke-width="1.2" stroke="#000" stroke-miterlimit="10" fill="none"/><path d="M49.383 185.523h8v11h-8zm0 0" fill="#fff"/><use xlink:href="#b" x="49.383" y="194.187" fill="#f00"/><path d="M144.05 154.852l-1.402 9.66" stroke-width="1.2" stroke="#f00" stroke-miterlimit="10" fill="none"/><path d="M142.648 164.512l-1.402 9.66" stroke-width="1.2" stroke="#000" stroke-miterlimit="10" fill="none"/><path d="M140.05 149.352h8v11h-8zm0 0" fill="#fff"/><use xlink:href="#b" x="140.051" y="158.015" fill="#f00"/><path d="M231.043 191.21l8.035-5.546" stroke-width="1.2" stroke="#00f" stroke-miterlimit="10" fill="none"/><path d="M239.078 185.664l8.035-5.543" stroke-width="1.2" stroke="#000" stroke-miterlimit="10" fill="none"/><path d="M230.043 186.32l6.426-4.437" stroke-width="1.2" stroke="#00f" stroke-miterlimit="10" fill="none"/><path d="M236.47 181.883l6.428-4.434" stroke-width="1.2" stroke="#000" stroke-miterlimit="10" fill="none"/><path d="M228.043 185.71h7v11h-7zm0 0" fill="#fff"/><use xlink:href="#a" x="228.043" y="194.374" fill="#00f"/><path d="M247.113 180.12l17.637 8.372" stroke-width="1.2" stroke="#000" stroke-miterlimit="10" fill="none"/></g></svg>
